X:1
T:Title
%%score { ( 1 3 ) | ( 2 4 ) }
L:1/8
M:4/4
K:C
V:1 treble nm="Grand Piano"
V:3 treble 
V:2 bass 
V:4 bass 
V:1
 z4 z2 z[Q:1/4=85] E | E4 z4 |[M:7/8] FEE E [G,B,D]3 |[M:1/8] z | %4
[M:4/4] z z/ E/ E>G G>[Ec] [Ec]>[Ge] |[M:9/8] [Ge]3- [Ge] c2- c d2 | .c3 z2 B- B- [FB]2 | %7
[M:7/8] [Ec] z z z z z2 |] %8
V:2
 z4 z2 z C | C4 z4 |[M:7/8] [C,A,C][C,G,C][C,G,C] [C,G,C] G,,3 |[M:1/8] z/[K:treble] C/ | %4
[M:4/4] C>C C>[CE] [CE]>[K:bass][C,G,] [C,G,]>[C,C] |[M:9/8] .C6 z3 | %6
 .[G,E]3 z2 [G,,G,]- [G,,G,]3 |[M:7/8] [C,G,] z z z z z2 |] %8
V:3
 x8 | z G,G,E EFFF |[M:7/8] x7 |[M:1/8] x |[M:4/4] x8 |[M:9/8] x9 | z3 z2 D- D z z |[M:7/8] x7 |] %8
V:4
 x8 | z C,C,[C,G,C] [C,G,C][C,A,C][C,A,C][C,A,C] |[M:7/8] x7 |[M:1/8] x/[K:treble] x/ | %4
[M:4/4] x11/2[K:bass] x5/2 |[M:9/8] C,3- C,- [C,G,E]2- [C,G,-E-]/[G,E]/ [F,A,F]2 | x9 | %7
[M:7/8] x7 |] %8

